X: 27400
T: Modest Fiddler, The
R: hornpipe
M: 4/4
K: Fdorian
|:B,A,|G,B,EF GA=AB|edcB =ABGE|A,CFG A=AcB|dcB=A _AFDA,|
G,B,EF GA=AB|edcB =ABGE|A,CFG DF=AB|G2 E2 E2:|
|:B2|=AB_AB GBFB|EFGA Bcde|=ef_ef dfcf|=efgf afdB|
=AB_AB GBFB|EGDE CEB,G,|A,CFA DFAB|G2 E2 E2:|

